X:1
T:Title
%%score ( 1 2 ) { 3 | 4 }
L:1/8
Q:1/4=100
M:3/4
K:Bb
V:1 treble nm="Grand Piano, Soprano"
V:2 treble 
V:3 bass nm="Choir Pad, Port of Spain, Mark M Jones"
V:4 bass 
V:1
 F>F B3 A | (3cBG F2 D2 | [FB]>[Fc] [Fd]3 [Fd] | [Fc][=EB] [Fc]4 | F>F B3 D | (3EFG G2 F2 | %6
w: By~Mark~M.~Jones,~1896 * * *||||||
 z2 z .d z2 | [EA]2 [DB]4 | [Fc]>[Fc] [Fc]2 F2 | [Fd]>[Fd] [Fd]2 [FB]2 | [EG][EG] [Ge]3 [Gd] | %11
w: |||||
 z2 B2 z2 | [EF][EF] [DB]2 [DB]2 | [Fd][_Af] [Gf]2 [Ge]2 | [GB][Gc] [Fd][FB] [Ac]2- | %15
w: ||||
 [Ac][FB] [FB]4- | [FB]4 z2 |] %17
w: ||
V:2
 x6 | x6 | x6 | x6 | x6 | x6 | [FB]F [EG]G/-[Gc]/ [FB]2 | x6 | x6 | x6 | x6 | [Gc][GB] F2- [FA]2 | %12
 x6 | x6 | x6 | x6 | x6 |] %17
V:3
 F,>F, B,3 A, | (3CB,G, F,2 D,2 | B,>A, B,3 B, | CG, A,4 | F,>F, B,3 D, | (3E,F,G, G,2 F,2 | %6
 F,B, B,[K:treble]E D2 | C2 B,4 | A,>[K:bass]A, A,2 C2 | B,>B, B,2 B,2 | B,B,[K:treble] C3 =B, | %11
 C_D =D2 C2 | A,C B,2 B,2 | B,B, B,2 B,2 | EE B,D E2- | EE D4- | D4 z2 |] %17
V:4
 z6 | z6 | D,>F, z2 z2 | .A,2 F,4 | z6 | z6 | D,D, E,E, F,2 | [F,,F,]2 B,,4 | F,>F, F,2 A,2 | %9
 z2 z2 D,2 | E,E, C,3 D, | E,=E, F,4 | F,A, z2 z2 | z D, E,2 E,2 | E,E, F,F, [F,,F,]2- | %15
 [F,,F,][F,,F,] B,,4- | B,,4 z2 |] %17

